X: 912
M: C
L: 1/8
K: G
V: 1
d |\
|: D |\
(B,/A,/G,) DG, EG,DG, | (B,/A,/G,) DG, EA,A,D |\
(B,/A,/G,) DG, EG,DG, | EGFA GG,G, :|
V: 2 clef=bass middle=d
z |\
g2g2 g2g2 | g2g2 a2a2 |\
g2g2 g2g2 | c2d2 G2G :|
|: z |

